dist/logo/error.svg

<svg width="414" height="415" fill="none" xmlns="http://www.w3.org/2000/svg"><path d="M413.997 207.001c0 48.911-16.952 93.861-45.312 129.262-37.937 47.383-96.267 77.739-161.686 77.739-65.42 0-123.75-30.353-161.687-77.739C16.95 300.862 0 255.91 0 207.001 0 92.671 92.67 0 207.001 0s206.996 92.67 206.996 207.001z" fill="#FF5677"/><path d="M237.246 207.001l49.042-49.041c8.355-8.353 8.355-21.896 0-30.251-8.353-8.353-21.896-8.353-30.252 0l-49.041 49.044-49.041-49.042c-8.353-8.352-21.897-8.352-30.252 0-8.355 8.353-8.355 21.896 0 30.252l49.041 49.041-49.041 49.041c-8.355 8.353-8.355 21.897 0 30.252a21.32 21.32 0 0015.124 6.265c5.474 0 10.95-2.09 15.125-6.265l49.044-49.044 49.041 49.041a21.32 21.32 0 0015.125 6.265c5.473 0 10.949-2.09 15.124-6.265 8.355-8.352 8.355-21.896 0-30.251l-49.039-49.042z" fill="#E8E6ED"/></svg>

<svg width="414" height="415" viewBox="0 0 414 415" fill="none" xmlns="http://www.w3.org/2000/svg">
<path d="M413.997 207.001C413.997 255.912 397.045 300.862 368.685 336.263C330.748 383.646 272.418 414.002 206.999 414.002C141.579 414.002 83.249 383.649 45.3122 336.263C16.9488 300.862 0 255.91 0 207.001C0 92.6702 92.6703 0 207.001 0C321.332 0 413.997 92.6702 413.997 207.001V207.001Z" fill="#FF5677"/>
<path d="M237.246 207.001L286.288 157.96C294.643 149.607 294.643 136.064 286.288 127.709C277.935 119.356 264.392 119.356 256.036 127.709L206.995 176.753L157.954 127.711C149.601 119.359 136.057 119.359 127.702 127.711C119.347 136.064 119.347 149.607 127.702 157.963L176.743 207.004L127.702 256.045C119.347 264.398 119.347 277.942 127.702 286.297C131.88 290.475 137.353 292.562 142.826 292.562C148.3 292.562 153.776 290.472 157.951 286.297L206.995 237.253L256.036 286.294C260.214 290.472 265.687 292.559 271.161 292.559C276.634 292.559 282.11 290.469 286.285 286.294C294.64 277.942 294.64 264.398 286.285 256.043L237.246 207.001Z" fill="#E8E6ED"/>
</svg>
